src/svg/10_Hair/Shraight short/1/hair_straightShort_red.svg

<svg width="450" height="378" viewBox="0 0 450 378" fill="none" xmlns="http://www.w3.org/2000/svg">
<path d="M138.532 57.4885C160.472 46.7295 177.596 45.7435 177.596 45.7435C177.596 45.7435 179.639 34.7645 189.341 34.2545C195.736 33.9175 198.788 40.6375 198.788 40.6375C198.788 40.6375 206.057 20.9775 221.511 20.9775C245.511 20.9775 251.894 73.0625 223.298 81.7435C213.158 84.8215 209.419 76.2965 179.638 88.3815C162.021 95.5305 151.808 114.935 151.808 114.935C151.808 114.935 156.163 123.669 156.659 126.424C157.906 133.352 154.361 140.211 158.446 153.233C161.452 162.814 174.531 192.382 174.531 192.382C174.531 192.382 166.924 188.598 153.34 190.254C132.404 192.807 119.042 182.339 110.191 167.02C105.469 158.847 103.808 147.616 103.808 147.616C103.808 147.616 94.1061 145.318 92.3191 136.127C90.4511 126.521 97.4251 121.574 97.4251 121.574C97.4251 121.574 89.5101 118 90.4461 110.68C91.5031 102.418 100.233 101.403 100.233 101.403C100.233 101.403 95.1941 95.9325 98.9561 89.9135C102.786 83.7855 109.935 85.0625 109.935 85.0625C109.935 85.0625 111.979 70.5105 138.532 57.4885Z" fill="#9C1F00"/>
<path opacity="0.4" d="M158.532 155.191C161.538 164.772 173.979 191.148 173.979 191.148C173.979 191.148 166.372 187.364 152.788 189.02C131.852 191.573 118.49 181.105 109.639 165.786C104.917 157.613 103.256 146.382 103.256 146.382C103.256 146.382 93.554 144.084 91.767 134.893C89.899 125.287 100.405 120.467 100.405 120.467C100.405 120.467 95.673 128.24 100.065 134.765C106.022 143.616 119.943 143.615 128.661 141.914C142.617 139.191 154.447 142.17 158.532 155.191Z" fill="#36245C" fill-opacity="0.73"/>
<path opacity="0.6" d="M137.298 57.9148C159.238 47.1558 176.362 46.1698 176.362 46.1698C176.362 46.1698 178.405 35.1908 188.107 34.6808C194.502 34.3438 199.213 41.4898 199.213 41.4898C199.213 41.4898 207.318 22.3408 221.511 22.3408C227.979 22.3408 231.724 27.3618 231.724 27.3618C231.724 27.3618 217.086 15.6168 205.256 39.0218C202.645 44.1868 200.405 51.0218 200.405 51.0218C200.405 51.0218 199.384 41.3198 192.32 41.9158C183.917 42.6248 183.894 53.0648 183.894 53.0648C183.894 53.0648 163.113 54.8898 143.979 62.5118C112.575 75.0228 111.553 86.7668 111.553 86.7668C111.553 86.7668 110.745 70.9358 137.298 57.9148Z" fill="#DA907E"/>
<path opacity="0.6" d="M228.83 35.3623C233.052 38.5743 235.698 43.8093 236.63 49.1933C237.574 54.6143 236.96 60.3023 234.954 65.4753C232.96 70.6353 229.459 75.3653 224.736 78.4083C222.386 79.9213 219.761 80.9903 217.07 81.4813C214.376 81.9503 211.648 81.9383 209.086 81.3203C214.27 80.4243 218.837 78.3993 222.39 75.2533C225.961 72.1403 228.569 68.0783 230.296 63.6613C232.013 59.2353 232.873 54.4353 232.734 49.6103C232.594 44.7813 231.434 39.9273 228.83 35.3623Z" fill="#DA907E"/>
<path opacity="0.6" d="M217.766 43.5322C220.659 47.1732 222.439 51.8702 222.604 56.7982C222.786 61.7212 221.282 66.7622 218.489 70.8842C215.715 75.0282 211.722 78.2722 207.259 80.2082C202.798 82.1382 197.83 82.7952 193.255 81.8302C197.77 80.6992 201.845 79.0462 205.425 76.7302C208.997 74.4272 212.046 71.4992 214.342 68.0932C216.637 64.6882 218.151 60.7972 218.689 56.6322C219.258 52.4572 218.789 48.0752 217.766 43.5322Z" fill="#DA907E"/>
<path opacity="0.6" d="M206.94 52.6895C207.959 55.9225 208.554 59.3495 208.238 62.9355L208.182 63.6085L208.038 64.2755L207.739 65.6185C207.627 66.0655 207.432 66.4935 207.277 66.9355C207.106 67.3715 206.967 67.8265 206.716 68.2305C206.487 68.6445 206.261 69.0665 206.018 69.4785C205.764 69.8815 205.448 70.2385 205.16 70.6215C204.872 71.0075 204.565 71.3755 204.215 71.6925C203.878 72.0255 203.536 72.3595 203.186 72.6815C200.268 75.0905 196.897 76.5155 193.662 77.6615C190.406 78.8005 187.181 79.6955 184.052 80.6995C177.789 82.6545 171.858 85.0565 166.682 88.8255C164.119 90.7235 161.727 92.9015 159.56 95.3525L157.941 97.2155C157.435 97.8655 156.963 98.5425 156.441 99.1955L155.676 100.19L154.982 101.234C154.499 101.923 154.032 102.625 153.527 103.316C154.053 101.716 154.503 100.046 155.239 98.5055C155.577 97.7185 155.939 96.9395 156.314 96.1635L157.579 93.9035C159.401 90.9675 161.579 88.1765 164.186 85.7885C166.797 83.4115 169.768 81.4275 172.887 79.8145C176.011 78.1985 179.284 76.9715 182.545 75.9355C185.811 74.9105 189.072 74.0735 192.204 73.1625C195.332 72.2495 198.306 71.1945 200.791 69.5825C203.181 67.9255 205.045 65.5505 205.841 62.4715C206.757 59.4415 206.877 56.0795 206.94 52.6895Z" fill="#DA907E"/>
<path d="M178.603 196.642L173.642 194.174C173.577 194.142 166.312 190.69 153.583 192.24C134.286 194.593 119.106 186.446 108.46 168.022C104.491 161.153 102.629 152.397 102.042 149.166C99.066 148.123 91.969 144.803 90.356 136.509C88.959 129.326 91.923 124.449 94.141 121.935C91.478 120.037 87.716 116.265 88.463 110.427C89.218 104.522 93.444 101.469 96.989 100.165C95.509 97.2895 94.635 93.0575 97.262 88.8545C100.502 83.6695 105.688 82.9475 108.417 82.9515C109.868 78.4435 115.647 66.4835 137.652 55.6925C156.258 46.5685 171.315 44.3665 175.993 43.8765C177.317 39.3665 181.264 32.6775 189.236 32.2575C193.571 32.0245 196.606 34.3805 198.439 36.5195C201.43 30.5615 208.87 18.9775 221.511 18.9775C234.251 18.9775 241.855 31.7765 243.738 44.4605C246.007 59.7465 240.76 78.5335 223.88 83.6575C220.003 84.8345 217.024 84.4945 213.577 84.1015C207.293 83.3845 199.473 82.4915 180.391 90.2345C165.73 96.1845 156.265 111.219 154.069 114.997C155.267 117.452 158.183 123.593 158.629 126.071C159.138 128.9 158.924 131.668 158.697 134.599C158.326 139.391 157.905 144.824 160.356 152.635C163.294 162 176.231 191.279 176.362 191.574L178.603 196.642ZM160.083 187.834C164.682 187.834 168.315 188.428 170.892 189.065C167.176 180.556 158.897 161.348 156.539 153.832C153.857 145.284 154.329 139.188 154.708 134.29C154.923 131.507 155.11 129.103 154.691 126.78C154.367 124.979 151.653 119.107 150.018 115.828L149.561 114.911L150.038 114.004C150.469 113.186 160.799 93.8685 178.886 86.5285C198.913 78.4015 207.649 79.3985 214.029 80.1275C217.16 80.4845 219.632 80.7665 222.717 79.8305C237.329 75.3945 241.806 58.6905 239.78 45.0485C238.149 34.0635 231.868 22.9785 221.51 22.9785C207.649 22.9785 200.73 41.1495 200.661 41.3335L198.971 45.8775L196.965 41.4645C196.864 41.2475 194.371 36.0165 189.444 36.2515C181.462 36.6715 179.633 45.7295 179.56 46.1145L179.267 47.6425L177.711 47.7395C177.544 47.7495 160.685 48.8515 139.411 59.2835C114.103 71.6945 111.934 85.2055 111.915 85.3405L111.626 87.3965L109.583 87.0315C109.354 86.9925 103.695 86.1045 100.652 90.9735C97.732 95.6455 101.663 100.005 101.703 100.048L104.364 102.936L100.463 103.39C100.177 103.426 93.269 104.363 92.429 110.933C91.696 116.668 97.985 119.63 98.253 119.753L101.398 121.199L98.581 123.204C98.349 123.373 92.695 127.587 94.281 135.744C95.804 143.578 104.183 145.649 104.268 145.669L105.586 145.982L105.785 147.323C105.801 147.431 107.452 158.285 111.921 166.02C121.825 183.162 135.294 190.439 153.096 188.269C155.626 187.961 157.958 187.834 160.083 187.834Z" fill="#3E2670"/>
</svg>

<?xml version="1.0" encoding="utf-8"?>
<!-- Generator: Adobe Illustrator 23.0.1, SVG Export Plug-In . SVG Version: 6.00 Build 0)  -->
<svg version="1.1" id="Hair" xmlns="http://www.w3.org/2000/svg" xmlns:xlink="http://www.w3.org/1999/xlink" x="0px" y="0px"
	 width="450px" height="378px" viewBox="0 0 450 378" enable-background="new 0 0 450 378" xml:space="preserve">
<path fill="#DC4A26" d="M138.532,57.489c21.94-10.759,39.064-11.745,39.064-11.745s2.043-10.979,11.745-11.489
	c6.395-0.337,9.447,6.383,9.447,6.383s7.269-19.66,22.723-19.66c24,0,30.383,52.085,1.787,60.766
	c-10.14,3.078-13.879-5.447-43.66,6.638c-17.617,7.149-27.83,26.553-27.83,26.553s4.355,8.734,4.851,11.489
	c1.247,6.928-2.298,13.787,1.787,26.809c3.006,9.581,16.085,39.149,16.085,39.149s-7.607-3.784-21.191-2.128
	c-20.936,2.553-34.298-7.915-43.149-23.234c-4.722-8.173-6.383-19.404-6.383-19.404s-9.702-2.298-11.489-11.489
	c-1.868-9.606,5.106-14.553,5.106-14.553s-7.915-3.574-6.979-10.894c1.057-8.262,9.787-9.277,9.787-9.277s-5.039-5.47-1.277-11.489
	c3.83-6.128,10.979-4.851,10.979-4.851S111.979,70.511,138.532,57.489z"/>
<path opacity="0.3" fill="#3E2670" d="M158.532,155.191c3.006,9.581,15.447,35.957,15.447,35.957s-7.607-3.784-21.191-2.128
	c-20.936,2.553-34.298-7.915-43.149-23.234c-4.722-8.173-6.383-19.404-6.383-19.404s-9.702-2.298-11.489-11.489
	c-1.868-9.606,8.638-14.426,8.638-14.426s-4.732,7.773-0.34,14.298c5.957,8.851,19.878,8.85,28.596,7.149
	C142.617,139.191,154.447,142.17,158.532,155.191z"/>
<path opacity="0.4" fill="#FFFFFF" d="M137.298,57.915c21.94-10.759,39.064-11.745,39.064-11.745s2.043-10.979,11.745-11.489
	c6.395-0.337,11.106,6.809,11.106,6.809s8.105-19.149,22.298-19.149c6.468,0,10.213,5.021,10.213,5.021s-14.638-11.745-26.468,11.66
	c-2.611,5.165-4.851,12-4.851,12s-1.021-9.702-8.085-9.106c-8.403,0.709-8.426,11.149-8.426,11.149s-20.781,1.825-39.915,9.447
	c-31.404,12.511-32.426,24.255-32.426,24.255S110.745,70.936,137.298,57.915z"/>
<path opacity="0.4" fill="#FFFFFF" d="M228.83,35.362c4.222,3.212,6.868,8.447,7.8,13.831c0.944,5.421,0.33,11.109-1.676,16.282
	c-1.994,5.16-5.495,9.89-10.218,12.933c-2.35,1.513-4.975,2.582-7.666,3.073c-2.694,0.469-5.422,0.457-7.984-0.161
	c5.184-0.896,9.751-2.921,13.304-6.067c3.571-3.113,6.179-7.175,7.906-11.592c1.717-4.426,2.577-9.226,2.438-14.051
	C232.594,44.781,231.434,39.927,228.83,35.362z"/>
<path opacity="0.4" fill="#FFFFFF" d="M217.766,43.532c2.893,3.641,4.673,8.338,4.838,13.266c0.182,4.923-1.322,9.964-4.115,14.086
	c-2.774,4.144-6.767,7.388-11.23,9.324c-4.461,1.93-9.429,2.587-14.004,1.622c4.515-1.131,8.59-2.784,12.17-5.1
	c3.572-2.303,6.621-5.231,8.917-8.637c2.295-3.405,3.809-7.296,4.347-11.461C219.258,52.457,218.789,48.075,217.766,43.532z"/>
<path opacity="0.4" fill="#FFFFFF" d="M206.94,52.689c1.019,3.233,1.614,6.66,1.298,10.246l-0.056,0.673l-0.144,0.667l-0.299,1.343
	c-0.112,0.447-0.307,0.875-0.462,1.317c-0.171,0.436-0.31,0.891-0.561,1.295c-0.229,0.414-0.455,0.836-0.698,1.248
	c-0.254,0.403-0.57,0.76-0.858,1.143c-0.288,0.386-0.595,0.754-0.945,1.071c-0.337,0.333-0.679,0.667-1.029,0.989
	c-2.918,2.409-6.289,3.834-9.524,4.98c-3.256,1.139-6.481,2.034-9.61,3.038c-6.263,1.955-12.194,4.357-17.37,8.126
	c-2.563,1.898-4.955,4.076-7.122,6.527l-1.619,1.863c-0.506,0.65-0.978,1.327-1.5,1.98l-0.765,0.995l-0.694,1.044
	c-0.483,0.689-0.95,1.391-1.455,2.082c0.526-1.6,0.976-3.27,1.712-4.811c0.338-0.787,0.7-1.566,1.075-2.342l1.265-2.26
	c1.822-2.936,4-5.727,6.607-8.115c2.611-2.377,5.582-4.361,8.701-5.974c3.124-1.616,6.397-2.843,9.658-3.879
	c3.266-1.025,6.527-1.862,9.659-2.773c3.128-0.913,6.102-1.968,8.587-3.58c2.39-1.657,4.254-4.032,5.05-7.111
	C206.757,59.441,206.877,56.079,206.94,52.689z"/>
<path fill="none" stroke="#3E2670" stroke-width="4" stroke-miterlimit="10" d="M138.532,57.489
	c21.94-10.759,39.064-11.745,39.064-11.745s2.043-10.979,11.745-11.489c6.395-0.337,9.447,6.383,9.447,6.383
	s7.269-19.66,22.723-19.66c24,0,30.383,52.085,1.787,60.766c-10.14,3.078-13.879-5.447-43.66,6.638
	c-17.617,7.149-27.83,26.553-27.83,26.553s4.355,8.734,4.851,11.489c1.247,6.928-2.298,13.787,1.787,26.809
	c3.006,9.581,16.085,39.149,16.085,39.149s-7.607-3.784-21.191-2.128c-20.936,2.553-34.298-7.915-43.149-23.234
	c-4.722-8.173-6.383-19.404-6.383-19.404s-9.702-2.298-11.489-11.489c-1.868-9.606,5.106-14.553,5.106-14.553
	s-7.915-3.574-6.979-10.894c1.057-8.262,9.787-9.277,9.787-9.277s-5.039-5.47-1.277-11.489c3.83-6.128,10.979-4.851,10.979-4.851
	S111.979,70.511,138.532,57.489z"/>
</svg>
